icons/solid/folder-open.svg

<svg width="24" height="24" viewBox="0 0 24 24" fill="none" xmlns="http://www.w3.org/2000/svg">
<path fill-rule="evenodd" clip-rule="evenodd" d="M21 10.1707C22.1652 10.5825 23 11.6938 23 13V18C23 19.6569 21.6569 21 20 21H6V13C6 11.3431 7.34315 10 9 10H21V10.1707ZM20.8293 8C20.4175 6.83481 19.3062 6 18 6H12.0704C11.736 6 11.4238 5.8329 11.2383 5.5547L10.4258 4.3359C9.86939 3.5013 8.93269 3 7.92963 3H5C3.34315 3 2 4.34315 2 6V18C2 18.4934 2.13978 19.2111 2.58847 19.8343C2.91521 20.2881 3.38462 20.6592 4 20.8533V13C4 10.2386 6.23858 8 9 8H20.8293Z" fill="currentColor"/>
</svg>

<svg width="24" height="24" fill="none" xmlns="http://www.w3.org/2000/svg"><path fill-rule="evenodd" clip-rule="evenodd" d="M21 10.17c1.165.412 2 1.524 2 2.83v5a3 3 0 01-3 3H6v-8a3 3 0 013-3h12v.17zM20.83 8A3.001 3.001 0 0018 6h-5.93a1 1 0 01-.832-.445l-.812-1.22A3 3 0 007.93 3H5a3 3 0 00-3 3v12c0 .493.14 1.211.588 1.834A2.73 2.73 0 004 20.854V13a5 5 0 015-5h11.83z" fill="currentColor"/></svg>
